X: 45
T:Step & Fetch Her (Bampton) (RD from Arnold Woodley)
M:4/4
L:1/8
O:England; Oxfordshire; Bampton.
B:Lionel Bacon, A Handbook of Morris Dances
Z:http://www.themorrisring.org/music/handbook-morris-dances
P:A(ABC)3
K:G
P:A
|:B2B2 cBcA|G2e2 egfe|d2Bd cBcA|G2B2 G4 :|
P:B
  A3 c B2d2|A3 c B2d2|A3 c B2d2|dcBA B2G2|
  A2Ac B2d2|A2Ac B2d2|A2Ac B2d2|dcBA G3  ||
P:C
A|B2Bc d2cB|A2AB c2A2|B2Bc d2g2|dcBA G3 A|
  B2Bc d2cB|A2AB c2A2|B2Bc d2g2|fdef g4  ||

